!!!COM: Corelli, Arcangelo
!!!OTL: Sonate a tre [in G]
!!!XEN: Trio Sonata Opus 1, No. 9
!!!OPS: Opus 1
!!!ONM: No. 9
!!!OMV: Movement 4.
!!!YEC: Copyright 1994, Center for Computer Assisted Research in the Humanities
!!!YEM: Rights to all derivative electronic formats reserved.
!!!YEM: Refer to licensing agreement for further details.
!! For the following instrumentation: Violino I & II, Violone/Archlute,
!!    and Organo.
!!!ONB1: Source gives first time signature as sign of imperfection 
!!!ONB2: ("common time") preceding 3/4. 
!! Allegro.
**kern	**kern	**kern	**kern
*ICklav	*ICstr	*ICstr	*ICstr
*Iorgan	*Icello	*Ivioln	*Ivioln
*	*Iarchl	*	*
!Organo	!Violone	!Violin 2	!Violin 1
!	! or	!	!
!	!Archlute	!	!
*clefF4	*clefF4	*clefG2	*clefG2
*k[]	*k[]	*k[]	*k[]
*G:	*G:	*G:	*G:
*M3/4	*M3/4	*M3/4	*M3/4
*MM132	*MM132	*MM132	*MM132
=1-	=1-	=1-	=1-
2G\	2G\	2g/	2.r
4r	4r	8r	.
.	.	8g/	.
=2	=2	=2	=2
2GG/	2GG/	8g/L	2.r
.	.	8d/	.
.	.	8g/	.
.	.	8b/	.
4r	4r	8dd/	.
.	.	8dd/J	.
=3	=3	=3	=3
2G\	2G\	8b\L	2.r
.	.	8g\	.
.	.	8b\	.
.	.	8dd\	.
4r	4r	8gg\	.
.	.	8gg\J	.
=4	=4	=4	=4
2GG/	2GG/	8gg\L	2.r
.	.	8dd\	.
.	.	8gg\	.
.	.	8bb\	.
4r	4r	8aa\	.
.	.	8gg\J	.
=5	=5	=5	=5
2D\	2D\	8ff#\L	2dd\
.	.	8aa\	.
.	.	8aa\	.
.	.	8ff#\	.
4r	4r	8dd\	8r
.	.	8a\J	8dd\
=6	=6	=6	=6
2DD/	2DD/	2f#/	8dd\L
.	.	.	8a\
.	.	.	8dd\
.	.	.	8ff#\
4r	4r	4r	8aa\
.	.	.	8aa\J
=7	=7	=7	=7
2D\	2D\	2a/	8ff#\L
.	.	.	8dd\
.	.	.	8ff#\
.	.	.	8aa\
4r	4r	4r	8ddd\
.	.	.	8ddd\J
=8	=8	=8	=8
2DD/	2DD/	2dd\	8ddd\L
.	.	.	8aa\
.	.	.	8ff#\
.	.	.	8dd\
4r	4r	4r	8aa\
.	.	.	8ddd\J
=9	=9	=9	=9
2GG/	2GG/	8gg\L	8bb\L
.	.	8bb\	8ddd\
.	.	8gg\	8bb\
.	.	8dd\	8gg\
4r	8r	8gg\	8bb\
.	8GG/	8bb\J	8ddd\J
=10	=10	=10	=10
4GG/	8GG/L	4gg\	4bb\
.	8DD/	.	.
4BB/	8GG/	4dd\	4gg\
.	8BB/	.	.
4D\	8D/	4a/	4ff#\
.	8D/J	.	.
=11	=11	=11	=11
2GG/	8BB\L	2b\	8gg\L
.	8GG\	.	8bb\
.	8BB\	.	8gg\
.	8D\	.	8dd\
4r	8G\	4r	8b\
.	8G\J	.	8g\J
=12	=12	=12	=12
2G\	2G\	8r	2d/
.	.	8dd/L	.
.	.	8b/	.
.	.	8g/	.
4r	4r	8d/	4r
.	.	8B/J	.
=13	=13	=13	=13
2GG/	2GG/	8G\L	8r
.	.	8gg\	8bb\L
.	.	8dd\	8gg\
.	.	8gg\	8bb\
4r	4r	8ff#\	8aa\
.	.	8ee\J	8gg\J
=14	=14	=14	=14
4.D\	4.D\	4.ff#\	4.aa\
8E\	8E\	8gg\	8gg\
4F#\	4F#\	4aa\	4ff#\
=15	=15	=15	=15
4G\	4G\	4dd\	4bb\
4A\	4A\	4.dd\	4.ee\
4AA/	4AA/	.	.
.	.	8cc#\	8ee\
=16	=16	=16	=16
2D\	2D\	4dd\	2dd\
.	.	4d/	.
4r	4r	8r	4r
.	.	8d/	.
=17	=17	=17	=17
2d\	2d\	8d/L	2.r
.	.	8A/	.
.	.	8d/	.
.	.	8f#/	.
4r	4r	8a/	.
.	.	8a/J	.
=18	=18	=18	=18
2D\	2D\	8f#/L	2d/
.	.	8d/	.
.	.	8f#/	.
.	.	8a/	.
4r	4r	8dd/	8r
.	.	8dd/J	8d/
=19	=19	=19	=19
2d\	2d\	2ff#\	8d/L
.	.	.	8A/
.	.	.	8d/
.	.	.	8f#/
4r	4r	4r	8a/
.	.	.	8a/J
=20	=20	=20	=20
2D\	2D\	2dd\	8f#/L
.	.	.	8d/
.	.	.	8f#/
.	.	.	8a/
4r	8r	4r	8dd/
.	8D\	.	8dd/J
=21	=21	=21	=21
4D\	8D\L	2a/	8ff#\L
.	8AA\	.	8aa\
4F#\	8D\	.	8ff#\
.	8F#\	.	8dd\
4A\	8A\	4r	8dd\
.	8A\J	.	8cc#\J
=22	=22	=22	=22
2d\	2d\	8f#\L	2dd\
.	.	8aa\	.
.	.	8ff#\	.
.	.	8dd\	.
4r	4r	8a\	4r
.	.	8aa\J	.
=23	=23	=23	=23
2D\	2D\	2ff#\	8r
.	.	.	8dd/L
.	.	.	8a/
.	.	.	8f#/
4r	4r	4r	8d/
.	.	.	8dd/J
=24	=24	=24	=24
2GG/	2GG/	8r	2b\
.	.	8gg\L	.
.	.	8dd\	.
.	.	8b\	.
4r	4r	8g\	4r
.	.	8gg\J	.
=25	=25	=25	=25
4C/	4C/	2ee\	8r
.	.	.	8ee\L
2C#/	2C#/	.	8aa\
.	.	.	8ee\
.	.	4r	8cc#\
.	.	.	8aa\J
=26	=26	=26	=26
4D\	4D\	8r	2ff#\
.	.	8ff#\L	.
2D#\	2D#\	8bb\	.
.	.	8ff#\	.
.	.	8dd#\	4r
.	.	8bb\J	.
=27	=27	=27	=27
2E\	2E\	2gg\	8r
.	.	.	8bb\L
.	.	.	8aa\
.	.	.	8gg\
4r	4r	4r	8ff#\
.	.	.	8ee\J
=28	=28	=28	=28
2BB/	2BB/	8r	8dd#\L
.	.	8bb\L	8gg\
.	.	8aa\	8ff#\
.	.	8gg\	8ee\
4r	4r	8ff#\	8dd#\
.	.	8ee\J	8cc#\J
=29	=29	=29	=29
2BB/	2BB/	8dd#\L	8b\L
.	.	8gg\	8ee\
.	.	8ff#\	8dd#\
.	.	8ee\	8cc#\
4r	4r	8dd#\	8b\
.	.	8cc#\J	8a\J
=30	=30	=30	=30
2BB/	2BB/	8b/L	8g/L
.	.	8g/	8b/
.	.	8f#/	8a/
.	.	8e/	8g/
4r	4r	8d#/	8f#/
.	.	8c#/J	8e/J
=31	=31	=31	=31
4BB/	4BB/	4B/	4d#/
!! Adagio.
*MM70	*MM70	*MM70	*MM70
4r	4r	4r	4r
4GG/	4GG/	4gg\	4r
=32	=32	=32	=32
2AA/	2AA/	4ff\	4r
.	.	4ee\	4r
4BB/	4BB/	4dd#\	4bb\
=33	=33	=33	=33
4C/	4C/	[2.ee\	4aa\
4BB/	4BB/	.	4gg\
4AA/	4AA/	.	4ff#\
=34	=34	=34	=34
4BB/	4BB/	4ee\]	4gg\
2BB/	2BB/	4.ee\	2ff#\
.	.	8dd#\	.
=35	=35	=35	=35
!! Allegro.
*MM132	*MM132	*MM132	*MM132
2EE/	2EE/	2ee\	8ee\L
.	.	.	8bb\
.	.	.	8gg\
.	.	.	8ee\
4r	4r	4r	8b\
.	.	.	8g\J
=36	=36	=36	=36
2E\	2E\	8r	2e/
.	.	8ee\L	.
.	.	8b\	.
.	.	8g#\	.
4r	4r	8e\	4r
.	.	8ee\J	.
=37	=37	=37	=37
2AA/	2AA/	2cc#\	8r
.	.	.	8ee/L
.	.	.	8cc#/
.	.	.	8a/
4r	4r	4r	8e/
.	.	.	8c#/J
=38	=38	=38	=38
2A\	2A\	8r	2A/
.	.	8aa\L	.
.	.	8ee\	.
.	.	8cc#\	.
4r	4r	8a\	4r
.	.	8aa\J	.
=39	=39	=39	=39
2D\	2D\	2ff#\	8r
.	.	.	8aa\L
.	.	.	8ff#\
.	.	.	8dd\
4r	4r	4r	8a\
.	.	.	8f#\J
=40	=40	=40	=40
2d\	2d\	8r	2d/
.	.	8dd/L	.
.	.	8a/	.
.	.	8f#/	.
4r	4r	8d/	4r
.	.	8dd/J	.
=41	=41	=41	=41
2G\	2G\	2b\	8r
.	.	.	8bb\L
.	.	.	8gg\
.	.	.	8dd\
4r	4r	4r	8b\
.	.	.	8g\J
=42	=42	=42	=42
2GG/	2GG/	8r	2d/
.	.	8dd/L	.
.	.	8b/	.
.	.	8g/	.
4r	4r	8d/	4r
.	.	8B/J	.
=43	=43	=43	=43
2G\	2G\	4G/	8r
.	.	.	8dd\
.	.	8r	4gg\
.	.	8b\	.
4r	4r	4dd\	8r
.	.	.	8gg\
=44	=44	=44	=44
2GG/	2GG/	8r	4bb\
.	.	8dd\	.
.	.	4gg\	8r
.	.	.	8bb\
4r	4r	8r	4ddd\
.	.	8gg\	.
=45	=45	=45	=45
2G\	2G\	4bb\	8r
.	.	.	8dd\
.	.	8r	4gg\
.	.	8bb\	.
4r	4r	4ddd\	8r
.	.	.	8b\
=46	=46	=46	=46
2GG/	2GG/	2.r	8dd\L
.	.	.	8bb\
.	.	.	8aa\
.	.	.	8gg\
4r	4r	.	8ff#\
.	.	.	8ee\J
=47	=47	=47	=47
2G\	2G\	8r	8dd\L
.	.	8bb\L	8gg\
.	.	8aa\	8ff#\
.	.	8gg\	8ee\
4r	4r	8ff#\	8dd\
.	.	8ee\J	8cc\J
=48	=48	=48	=48
2GG/	2GG/	8dd\L	8b\L
.	.	8gg\	8dd\
.	.	8ee\	8cc\
.	.	8dd\	8b\
4r	4r	8cc\	8a\
.	.	8b\J	8g\J
=49	=49	=49	=49
2D\	2D\	8a\L	8f#/L
.	.	8dd\	8b/
.	.	8cc\	8a/
.	.	8b\	8g/
4r	4r	8a\	8f#/
.	.	8g\J	8e/J
=50	=50	=50	=50
4D\	4D\	4f#/	4d/
4r	4r	4r	4r
4r	4r	4r	4r
=51||	=51||	=51||	=51||
!! Adagio.
*M4/4	*M4/4	*M4/4	*M4/4
*MM70	*MM70	*MM70	*MM70
4r	4r	2r	4r
4BB/	4BB/	.	[4dd\
4C/	4C/	4.ee\	8dd\L]
.	.	.	(16cc\L
.	.	.	16b\JJ)
4E\	4E\	.	[4cc\
.	.	(16dd\LL	.
.	.	16cc\JJ)	.
=52	=52	=52	=52
4F#\	4F#\	4.dd\	8cc/L]
.	.	.	8f#/J
4G\	4G\	.	[4b\
.	.	(16ee\LL	.
.	.	16dd\JJ)	.
4E\	4E\	4.cc\	8b/L]
.	.	.	8e/J
4F#\	4F#\	.	[4a/
.	.	(16dd\LL	.
.	.	16cc\JJ)	.
=53	=53	=53	=53
4.G\	4.G\	4b\	8a/L]
.	.	.	8d/J
.	.	4b-\	2g/
8C/	8C/	.	.
2D\	2D\	2a/	.
.	.	.	4f#/
=54	=54	=54	=54
2GG/	2GG/	2g/	2g/
2r;	2r;	2r;	2r;
==	==	==	==
*-	*-	*-	*-
!!!CDT: 1653/2/17/-1713/1/8
!!!OCY: Italia
!!!ODE: Queen Christina Alexandra of Sweden
!!!ODT: 1681//
!!!OPC: Roma; Rome
!!!AGN: trio sonata
!!!AST: baroque, chamber
!!!AMT: irregular
!!!YOR1: J. Joachim & F. Chrysander (eds.) Les Oeuvre de Arcangelo Corelli
!!!YOR2: London: Augener & Co. 1871
!!!YOY: 1871
!!!AIN: archl cello organ violn
!!!EEV: 1.1
!!!RDT: 1993 September 15
!!!YER: 1994 December 14
!!!EMD: 1996 July 9
!!!YEN: United States of America
!!!EFL: 4/4
!!!ENC: Frances Bennion & Steven Rasmussen
!!!EED: W.B. Hewlett
!!!VTS: 1184133033
